Sources/FrostedUI/Resources/Icons.xcassets/arrowUpFromBracket16.imageset/arrow-up-from-bracket-16.svg

<svg width="16" height="16" viewBox="0 0 16 16" fill="none" xmlns="http://www.w3.org/2000/svg" data-fui-icon="true">
  <path
    d="M14.25 8.00012C14.6641 8.00012 14.9999 8.33602 15 8.75012V11.2872C15 13.3583 13.3211 15.0372 11.25 15.0372H4.75C2.67893 15.0372 1 13.3583 1 11.2872V8.75012C1.00014 8.33602 1.33587 8.00012 1.75 8.00012C2.16413 8.00012 2.49987 8.33602 2.5 8.75012V11.2872C2.5 12.5299 3.50736 13.5372 4.75 13.5372H11.25C12.4926 13.5372 13.5 12.5299 13.5 11.2872V8.75012C13.5001 8.33602 13.8359 8.00012 14.25 8.00012ZM7.23438 1.3175C7.63112 0.920947 8.25913 0.895993 8.68457 1.24329L8.7666 1.3175L11.9189 4.46985C12.2113 4.76268 12.2114 5.23761 11.9189 5.5304C11.6262 5.82315 11.1513 5.82289 10.8584 5.5304L8.75 3.422L8.74902 9.25012C8.74896 9.66428 8.4132 10.0001 7.99902 10.0001C7.58527 9.99963 7.24909 9.66398 7.24902 9.25012L7.25 3.42297L5.1416 5.5304C4.84868 5.82298 4.37385 5.82319 4.08105 5.5304C3.78845 5.23759 3.78853 4.7627 4.08105 4.46985L7.23438 1.3175Z"
    fill="currentColor"
  />
</svg>

<svg xmlns="http://www.w3.org/2000/svg" width="16" height="16" fill="none" data-fui-icon="true" viewBox="0 0 16 16"><path fill="currentColor" d="M14.25 8a.75.75 0 0 1 .75.75v2.537a3.75 3.75 0 0 1-3.75 3.75h-6.5A3.75 3.75 0 0 1 1 11.287V8.75a.75.75 0 0 1 1.5 0v2.537a2.25 2.25 0 0 0 2.25 2.25h6.5a2.25 2.25 0 0 0 2.25-2.25V8.75a.75.75 0 0 1 .75-.75M7.234 1.318a1.084 1.084 0 0 1 1.45-.075l.083.074 3.152 3.153a.75.75 0 0 1-1.06 1.06L8.75 3.422 8.749 9.25a.75.75 0 0 1-1.5 0l.001-5.827L5.142 5.53A.75.75 0 0 1 4.08 4.47z"/></svg>
